!!!!SEGMENT: pl-cz--ii-188--001_orlowski-michal--missa-ex-g-kyrie.krn
!!!cenid: 17xx:1005
!!!COM: Orłowski, Michał
!!!COM-rismid: pe30020336
!!!CDT: ~1700-~1799
!!!CNT:
!!!OPR: Missa ex G
!!!OTL: Kyrie
!!!OMV: 001
!!!PDT:
!!!AGN: Sacred; Mass
!!!SMS-siglum: PL-CZ
!!!SMS-shelfmark: II-188
!!!SMS-shelfwork: 001-001 M
!!!SMS-variant:
!!!SMS-altvar:
!!!NIFC-rismid: 300000944
!!!URL-scan: http://repozytorium.nifc.pl/skany/pl-cz-nut--ii-188
!!!ONB-nifc: UWAGA: części Mszy: Kyrie, Gloria, Laudamus, Domine deus, Qui tollis, Quoniam,
!!!AIN: 4 empty 2 violn 2 vox
!!!key:
**kern	**dynam	**kern	**dynam	**kern	**kern	**text	**kern	**text	**kern	**text	**kern	**kern
*part8	*part8	*part7	*part7	*part6	*part5	*part5	*part4	*part4	*part3	*part3	*part2	*part1
*staff8	*	*staff7	*	*staff6	*staff5	*staff5	*staff4	*staff4	*staff3	*staff3	*staff2	*staff1
*Iempty	*	*Ivioln	*	*Ivioln	*Iempty	*	*Ivox	*	*Ivox	*	*Iempty	*Iempty
*I"Fundamento.	*	*I"Violino Secundo.	*	*I"Violino Primo.	*I"Baſso.	*	*I"Canto 2do:	*	*I"Canto 1mo:	*	*I"Cornu 2do. in G.	*I"Cornu 1mo.. in G.
*I'Fund.	*	*I'Vn II	*	*I'Vn I	*I'B.	*	*I'C II	*	*I'C I	*	*I'Cor II	*I'Cor I
*clefF4	*	*clefG2	*	*clefG2	*clefF4	*	*clefC1	*	*clefC1	*	*clefG2	*clefG2
*	*	*	*	*	*	*	*	*	*	*	*ITrd3c5	*ITrd3c5
*k[f#]	*	*k[f#]	*	*k[f#]	*k[f#]	*	*k[f#]	*	*k[f#]	*	*k[f#]	*k[f#]
*G:	*	*G:	*	*G:	*G:	*	*G:	*	*G:	*	*G:	*G:
*M6/8	*	*M6/8	*	*M6/8	*M6/8	*	*M6/8	*	*M6/8	*	*M6/8	*M6/8
=1	=1	=1	=1	=1	=1	=1	=1	=1	=1	=1	=1	=1
!LO:TX:a:t=Ma non Troppo	!	!LO:TX:b:t=Kyrie	!	!LO:TX:b:t=Kyrie	!LO:TX:a:t=Ma non Troppo.	!	!LO:TX:a:t=2	!	!LO:TX:t=P:problem=all\right&colon; global	!	!LO:TX:b:t=Kyrie	!LO:TX:b:t=Kyrie.
!LO:TX:b:t=Kyrie	!	!LO:TX:a:t=Ma non Troppo.	!	!LO:TX:a:t=Ma non Troppo.	!LO:TX:b:t=Kyrie	!	!LO:TX:a:t=Ma non Troppo.	!	!LO:TX:a:t=Ma non Troppo.	!	!LO:TX:a:t=Ma non Troppo.	!LO:TX:a:t=Ma no(n) Troppo.
!LO:TX:b:t=P:problem=Napis "Kyrie" przed kluczem na pięciolinii	!	!LO:TX:b:t=P:problem=Napis "Kyrie" przed kluczem na pięciolinii	!	!	!	!	!	!	!	!	!	!
!	!	!	!	!LO:TX:b:t=P:problem=Napis "Kyrie" przed kluczem na pięciolinii	!LO:TX:b:t=P:problem=Napis "Kyrie" przed kluczem na pięciolinii	!	!	!	!	!	!LO:TX:b:t=P:problem=Napis "Kyrie" przed kluczem na pięciolinii	!LO:TX:b:t=P:problem=Napis "Kyrie" przed kluczem na pięciolinii
!	!	!LO:N:vis=0	!	!	!LO:N:vis=00	!	!LO:N:vis=0	!	!	!	!LO:N:vis=00	!LO:N:vis=00
[>2.GG/	.	1.r	.	8g/L	0.r	.	1.r	.	8g\L	Ky-	0.r	0.r
.	.	.	.	8a/	.	.	.	.	8a\J	.	.	.
.	.	.	.	8b/J	.	.	.	.	8b\	-ri-	.	.
.	.	.	.	8cc/L	.	.	.	.	8cc\L	-e	.	.
*	*	*	*	*	*	*	*	*	*	*ij	*	*
!	!	!	!	!	!	!	!	!	!LO:TX:b:t=P:problem=symbol graficzny powtórzenia tekstu w źródle	!	!	!
.	.	.	.	8b/	.	.	.	.	8b\	[e]-	.	.
*	*	*	*	*	*	*	*	*	*	*Xij	*	*
.	.	.	.	8a/J	.	.	.	.	8a\J	.	.	.
=2	=2	=2	=2	=2	=2	=2	=2	=2	=2	=2	=2	=2
2.GG/_>	.	.	.	8g/L	.	.	.	.	8g\L	-ley-	.	.
.	.	.	.	8a/	.	.	.	.	8a\	.	.	.
.	.	.	.	8f#/J	.	.	.	.	8f#\J	.	.	.
.	.	.	.	4g/	.	.	.	.	4g/	-son	.	.
.	.	.	.	8r	.	.	.	.	8r	.	.	.
=3	=3	=3	=3	=3	=3	=3	=3	=3	=3	=3	=3	=3
*	*	*	*	*	*	*	*	*	*	*ij	*	*
!	!	!	!	!LO:TX:t=P:problem=all\right&colon; global	!	!	!LO:TX:t=P:problem=all\right&colon; global	!	!	!	!	!
2.GG/_>	.	8g/L	.	8b\L	.	.	8g\L	Ky-	8b\L	Ky-	.	.
!	!	!	!LO:DY:b:rj	!	!	!	!	!	!	!	!	!
!	!	!	!LO:HP:i:b:t=pia.	!	!	!	!	!	!	!	!	!
.	.	8a/	p	8cc\	.	.	8a\J	.	8cc\	.	.	.
.	.	8b/J	.	8dd\J	.	.	8b\	-ri-	8dd\J	-ri-	.	.
.	.	8cc/L	.	8ee\L	.	.	8cc\L	-e	8ee\L	-e	.	.
*	*	*	*	*	*	*	*	*ij	*	*	*	*
.	.	8b/	.	8dd\	.	.	8b\	[e]-	8dd\	e-	.	.
*	*	*	*	*	*	*	*	*Xij	*	*	*	*
.	.	8a/J	.	8cc\J	.	.	8a\J	.	8cc\J	.	.	.
=4	=4	=4	=4	=4	=4	=4	=4	=4	=4	=4	=4	=4
2.GG/]	.	8g/L	.	8b/L	.	.	8g\L	-ley-	8b\L	-ley-	.	.
.	.	8a/	.	8cc/	.	.	8a\	.	8cc\	.	.	.
.	.	8f#/J	.	8a/J	.	.	8f#\J	.	8a\J	.	.	.
!	!	!	!	!LO:TX:a:t=P:problem=brak laski przy główce nuty	!	!	!	!	!	!	!	!
.	.	4g/	.	4b\	.	.	4g/	-son	4b\	-son	.	.
*	*	*	*	*	*	*	*	*	*	*Xij	*	*
.	.	8r	.	8r	.	.	8r	.	8r	.	.	.
=5	=5	=5	=5	=5	=5	=5	=5	=5	=5	=5	=5	=5
*	*	*	*	*	*	*	*	*	*	*	*	*2\right
!LO:TX:t=P:problem=all\right&colon; global	!	!	!	!	!LO:TX:t=P:problem=all\right&colon; global	!	!	!	!	!	!	!LO:TX:t=P:problem=all\right&colon; global
4.G\	.	[<4.d/ [>4.b	.	8dd\L	[>4.G\	Ky-	4b\	Ky-	4dd\	Ky-	[>2.G/	[<2.g\
.	.	.	.	8b\	.	.	.	.	.	.	.	.
.	.	.	.	8g\J	.	.	8b\	-ri-	8dd\	-ri-	.	.
8G\L	.	8d/L] 8b]	.	8gg\L	8G\L]	.	4b\	-e	4dd\	-e	.	.
8B\	.	8d/ 8b	.	16gg\L	8B\	.	.	.	.	.	.	.
.	.	.	.	16ff#\J	.	.	.	.	.	.	.	.
8G\J	.	8d/J 8b	.	8gg\J	8G\J	-ri-	8r	.	8r	.	.	.
!	!	!	!	!LO:LB:g=original	!	!	!	!	!LO:LB:g=original	!	!	!
=6	=6	=6	=6	=6	=6	=6	=6	=6	=6	=6	=6	=6
!LO:N:vis=4	!	!	!	!	!	!	!	!	!	!	!LO:N:vis=2	!
*	*	*	*	*	*	*	*	*ij	*	*	*	*
4.c\	.	4.e/ 4.cc	.	8ee\L	[>4.c\	-e	4cc\	Ky-	4ee\	Ky-	2.G/_>	2.g\_<
.	.	.	.	8cc\	.	.	.	.	.	.	.	.
.	.	.	.	8g\J	.	.	8cc\	-ri-	8ee\	-ri-	.	.
8c\L	.	8e/L 8cc	.	8gg\L	8c\L]	.	4cc\	-e	4ee\	-e	.	.
*	*	*	*	*	*	*ij	*	*Xij	*	*	*	*
8e\	.	8e/ 8cc	.	16gg\L	8e\	e	.	.	.	.	.	.
.	.	.	.	16ff#\J	.	.	.	.	.	.	.	.
8c\J	.	8e/J 8cc	.	8gg\J	8c\J	.	8r	.	8r	.	.	.
=7	=7	=7	=7	=7	=7	=7	=7	=7	=7	=7	=7	=7
*	*	*	*	*	*	*	*	*	*	*ij	*	*
4.G\	.	[<4.d/ 4.b	.	8dd/L	[>4.G\	e	4b\	Ky-	4dd\	Ky-	2.G/_>	2.g\_<
.	.	.	.	8b/	.	.	.	.	.	.	.	.
.	.	.	.	8g/J	.	.	8b\	-ri-	8dd\	-ri-	.	.
8G\L	.	8d/L] 8b	.	8gg\L	8G\L]	.	4b\	-e	4dd\	-e	.	.
*	*	*	*	*	*	*	*	*	*	*Xij	*	*
8B\	.	8d/ 8b	.	16gg\L	8B\	.	.	.	.	.	.	.
.	.	.	.	16ff#\J	.	.	.	.	.	.	.	.
8G\J	.	8d/J 8b	.	8gg\J	8G\J	.	8r	.	8r	.	.	.
!	!	!	!	!	!	!	!LO:LB:g=original	!	!	!	!	!
=8	=8	=8	=8	=8	=8	=8	=8	=8	=8	=8	=8	=8
!	!	!LO:TX:t=P:problem=all\right&colon; global	!	!	!	!	!	!	!	!	!	!
4c\	.	16ee\LL	.	16ee\LL	4c\	e	4cc\	e	4ee\	e	4G/]	4g\]
.	.	16dd\	.	16dd\	.	.	.	.	.	.	.	.
.	.	16cc\	.	16cc\	.	.	.	.	.	.	.	.
.	.	16b\	.	16b\	.	.	.	.	.	.	.	.
8r	.	16a\	.	16a\	8r	.	8r	.	8r	.	8r	8r
.	.	16g\JJ	.	16g\JJ	.	.	.	.	.	.	.	.
*	*	*	*	*	*	*	*	*ij	*	*	*	*
8C/L	.	16ee\LL	.	16ee\LL	4C/	[e]-	4cc\	e-	4ee\	e-	4G/	4g\
*	*	*	*	*	*	*Xij	*	*Xij	*	*	*	*
.	.	16dd\	.	16dd\	.	.	.	.	.	.	.	.
8C/	.	16cc\	.	16cc\	.	.	.	.	.	.	.	.
.	.	16b\	.	16b\	.	.	.	.	.	.	.	.
8C#X/J	.	16a\	.	16a\	8r	.	8r	.	8r	.	8r	8r
.	.	16g\JJ	.	16g\JJ	.	.	.	.	.	.	.	.
!LO:LB:g=original	!	!LO:LB:g=original	!	!	!	!	!	!	!	!	!	!
=9	=9	=9	=9	=9	=9	=9	=9	=9	=9	=9	=9	=9
!LO:TX:t=P:problem=mixed beam	!	!LO:TX:t=P:problem=mixed beam	!	!LO:TX:t=P:problem=mixed beam	!	!	!	!	!	!	!	!
8D/L	.	8dd\L	.	8dd\L	4.D/	-lei-	4.dd\	-ley-	4.dd\	-ley-	8d/L	8a\L
8d\	.	8d/	.	8d/	.	.	.	.	.	.	8d/	8a\
8D/J	.	8d/J	.	8d/J	.	.	.	.	.	.	8d/J	8a\J
4D/	.	4d/	.	4d/	4D/	-son	8dd\	-son	4dd\	-son	4d/	4a\
.	.	.	.	.	.	.	8r	.	.	.	.	.
8r	.	8r	.	8r	8r	.	8r	.	8r	.	8r	8r
!	!	!	!	!	!LO:LB:g=original	!	!	!	!	!	!	!
=10	=10	=10	=10	=10	=10	=10	=10	=10	=10	=10	=10	=10
!	!	!	!	!	!LO:TX:a:t=4	!	!LO:TX:a:t=4	!	!LO:TX:a:t=4	!	!	!
!	!LO:DY:b	!	!	!	!	!	!	!	!	!	!	!
!	!LO:HP:a:t=pia.	!	!	!	!	!	!	!	!	!	!	!
!	!	!	!	!	!LO:N:vis=00	!	!LO:N:vis=00	!	!LO:N:vis=00	!	!LO:N:vis=00	!LO:N:vis=00
4G\	p	8r	.	4.dd\	0.r	.	0.r	.	0.r	.	0.r	0.r
!	!	!	!LO:HP:i:b:t=pia.	!	!	!	!	!	!	!	!	!
!	!	!	!LO:DY:b	!	!	!	!	!	!	!	!	!
.	.	8b/L	p	.	.	.	.	.	.	.	.	.
8r	.	8b/J	.	.	.	.	.	.	.	.	.	.
4A\	.	8r	.	4.cc#X\	.	.	.	.	.	.	.	.
.	.	8a/L	.	.	.	.	.	.	.	.	.	.
8r	.	8a/J	.	.	.	.	.	.	.	.	.	.
=11	=11	=11	=11	=11	=11	=11	=11	=11	=11	=11	=11	=11
4D\	.	8r	.	4.ccn\	.	.	.	.	.	.	.	.
.	.	8a/L	.	.	.	.	.	.	.	.	.	.
8r	.	8a/J	.	.	.	.	.	.	.	.	.	.
4G\	.	8r	.	4.b\	.	.	.	.	.	.	.	.
.	.	8g/L	.	.	.	.	.	.	.	.	.	.
8r	.	8g/J	.	.	.	.	.	.	.	.	.	.
=12	=12	=12	=12	=12	=12	=12	=12	=12	=12	=12	=12	=12
4G\	.	8r	.	4.dd\	.	.	.	.	.	.	.	.
.	.	8b/L	.	.	.	.	.	.	.	.	.	.
8r	.	8b/J	.	.	.	.	.	.	.	.	.	.
4A\	.	8r	.	4.cc#X\	.	.	.	.	.	.	.	.
.	.	8a/L	.	.	.	.	.	.	.	.	.	.
8r	.	8a/J	.	.	.	.	.	.	.	.	.	.
!	!	!	!	!LO:LB:g=original	!	!	!	!	!	!	!	!
=13	=13	=13	=13	=13	=13	=13	=13	=13	=13	=13	=13	=13
4D\	.	8r	.	4.ccn\	.	.	.	.	.	.	.	.
.	.	8a/L	.	.	.	.	.	.	.	.	.	.
8r	.	8a/J	.	.	.	.	.	.	.	.	.	.
4G\	.	8r	.	4.b\	.	.	.	.	.	.	.	.
.	.	8g/L	.	.	.	.	.	.	.	.	.	.
8r	.	8g/J	.	.	.	.	.	.	.	.	.	.
=14	=14	=14	=14	=14	=14	=14	=14	=14	=14	=14	=14	=14
!	!LO:DY:b	!	!	!	!	!	!	!	!	!	!	!
!	!LO:HP:a:t=for.	!	!	!	!	!	!	!	!	!	!	!
4C/	f	4cc\	.	8ee\L	4.C/	E-	4.cc\	E-	4.ee\	e-	4G/	4g\
.	.	.	.	8cc\	.	.	.	.	.	.	.	.
8r	.	8r	.	8a\J	.	.	.	.	.	.	8r	8r
!	!	!	!LO:HP:i:b:t=for.	!	!	!	!	!	!	!	!	!
!	!	!	!LO:DY:b:rj	!	!	!	!	!	!	!	!	!
4D/	.	4dd\	f	8ff#\L	4.D/	-ley-	4.dd\	-ley-	4.ff#\	-ley-	8d/L	8a\L
.	.	.	.	8dd\	.	.	.	.	.	.	8d/	8a\
8r	.	8r	.	8ff#\J	.	.	.	.	.	.	8d/J	8a\J
=15	=15	=15	=15	=15	=15	=15	=15	=15	=15	=15	=15	=15
4G\	.	16gg\LL	.	16gg\LL	4G\	-son	4b\	-son	4gg\	-son	4G/	4g\
.	.	16ff#\	.	16ff#\	.	.	.	.	.	.	.	.
.	.	16ee\	.	16ee\	.	.	.	.	.	.	.	.
.	.	16dd\	.	16dd\	.	.	.	.	.	.	.	.
8r	.	16cc\	.	16cc\	8r	.	8r	.	8r	.	8r	8r
.	.	16b\JJ	.	16b\JJ	.	.	.	.	.	.	.	.
!	!	!	!	!	!	!	!	!	!	!	!LO:LB:g=original	!
4c\	.	16ee\LL	.	16ee\LL	4c\	e-	4cc\	e-	4ee\	e-	4G/	4g\
.	.	16dd\	.	16dd\	.	.	.	.	.	.	.	.
.	.	16cc\	.	16cc\	.	.	.	.	.	.	.	.
.	.	16b\	.	16b\	.	.	.	.	.	.	.	.
8r	.	16a\	.	16a\	8r	.	8r	.	8r	.	8r	8r
.	.	16g\JJ	.	16g\JJ	.	.	.	.	.	.	.	.
=16	=16	=16	=16	=16	=16	=16	=16	=16	=16	=16	=16	=16
*tremolo	*	*	*	*	*	*	*	*	*	*	*	*
*	*	*tremolo	*	*	*	*	*	*	*	*	*	*
!	!	!	!	!	!	!	!	!	!	!	!LO:TX:t=P:problem=all\right&colon; global	!
8d\L	.	16g/LL	.	4.d/	4.d\	-ley-	4.g/	-ley-	4.b\	-ley-	4.g\	4.b\
.	.	16g/	.	.	.	.	.	.	.	.	.	.
8d\	.	16g/	.	.	.	.	.	.	.	.	.	.
.	.	16g/	.	.	.	.	.	.	.	.	.	.
8d\J	.	16g/	.	.	.	.	.	.	.	.	.	.
.	.	16g/JJ	.	.	.	.	.	.	.	.	.	.
8D/L	.	16f#/LL	.	4.aT>/	4.D/	.	4.f#t>/	.	4.aT>\	.	4.d/	4.aT>\
.	.	16f#/	.	.	.	.	.	.	.	.	.	.
8D/	.	16f#/	.	.	.	.	.	.	.	.	.	.
.	.	16f#/	.	.	.	.	.	.	.	.	.	.
8D/J	.	16f#/	.	.	.	.	.	.	.	.	.	.
.	.	16f#/JJ	.	.	.	.	.	.	.	.	.	.
!	!	!LO:LB:g=original	!	!	!	!	!	!	!LO:LB:g=original	!	!	!LO:LB:g=original
=17	=17	=17	=17	=17	=17	=17	=17	=17	=17	=17	=17	=17
4G\	.	16gg\LL	.	16gg\LL	4G\	-son	4g/	-son	4b\	-son	4G/	4g\
.	.	16ff#\	.	16ff#\	.	.	.	.	.	.	.	.
.	.	16ee\	.	16ee\	.	.	.	.	.	.	.	.
.	.	16dd\	.	16dd\	.	.	.	.	.	.	.	.
8r	.	16cc\	.	16cc\	8r	.	8r	.	8r	.	8r	8r
.	.	16b\JJ	.	16b\JJ	.	.	.	.	.	.	.	.
4c\	.	16ee\LL	.	16ee\LL	4c\	e-	4cc\	e-	4ee\	e-	4G/	4g\
.	.	16dd\	.	16dd\	.	.	.	.	.	.	.	.
.	.	16cc\	.	16cc\	.	.	.	.	.	.	.	.
.	.	16b\	.	16b\	.	.	.	.	.	.	.	.
8r	.	16a\	.	16a\	8r	.	8r	.	8r	.	8r	8r
.	.	16g\JJ	.	16g\JJ	.	.	.	.	.	.	.	.
=18	=18	=18	=18	=18	=18	=18	=18	=18	=18	=18	=18	=18
8d\L	.	16g/LL	.	4.d/	4.d\	-lei-	4.g/	-ley-	4.b\	-ley-	4.g\	4.b\
.	.	16g/	.	.	.	.	.	.	.	.	.	.
8d\	.	16g/	.	.	.	.	.	.	.	.	.	.
.	.	16g/	.	.	.	.	.	.	.	.	.	.
8d\J	.	16g/	.	.	.	.	.	.	.	.	.	.
.	.	16g/JJ	.	.	.	.	.	.	.	.	.	.
*	*	*	*	*	*	*	*	*	*	*ij	*	*
!	!	!	!	!	!	!	!	!	!LO:TX:b:t=P:problem=symbol graficzny powtórzenia tekstu w źródle	!	!	!
8D/L	.	16f#/LL	.	4.aT>/	4.D/	.	4.f#t>/	.	4.a\	.	4.d/	4.aT>\
*	*	*	*	*	*	*	*	*	*	*Xij	*	*
.	.	16f#/	.	.	.	.	.	.	.	.	.	.
8D/	.	16f#/	.	.	.	.	.	.	.	.	.	.
.	.	16f#/	.	.	.	.	.	.	.	.	.	.
8D/J	.	16f#/	.	.	.	.	.	.	.	.	.	.
.	.	16f#/JJ	.	.	.	.	.	.	.	.	.	.
!	!	!	!	!	!	!	!LO:LB:g=original	!	!	!	!	!
=19	=19	=19	=19	=19	=19	=19	=19	=19	=19	=19	=19	=19
*Xtremolo	*	*Xtremolo	*	*	*	*	*	*	*	*	*	*
8G\L	.	8g/L	.	8g/L	4G\	-ſon	4g/	-son	4b\	-son	8B/L	8g\L
8G\	.	8d/ 8b	.	8d/ 8b 8gg	.	.	.	.	.	.	8g/	8b\
8G\J	.	8d/J 8b	.	8d/J 8b 8gg	8r	.	8r	.	8r	.	8g/J	8b\J
4G\	.	4d/ 4b	.	4d/ 4b 4gg	4r	.	4r	.	4r	.	4g\	4b\
8r	.	8r	.	8r	8r	.	8r	.	8r	.	8r	8r
!LO:LB:g=original	!	!	!	!	!	!	!	!	!	!	!	!
=20	=20	=20	=20	=20	=20	=20	=20	=20	=20	=20	=20	=20
*	*	*	*	*	*	*	*2\right	*	*2\right	*	*	*
8G\L	.	16b\LL	.	16gg\LL	8G\L	Ky-	2.b\	Ky-	2.dd\	Ky-	[>2.G/	[<2.g\
.	.	16b\	.	16gg\	.	.	.	.	.	.	.	.
8A\	.	16b\	.	16gg\	8A\J	.	.	.	.	.	.	.
.	.	16b\	.	16gg\	.	.	.	.	.	.	.	.
8B\J	.	16b\	.	16gg\	8B\	-ri-	.	.	.	.	.	.
.	.	16b\JJ	.	16gg\JJ	.	.	.	.	.	.	.	.
*	*	*tremolo	*	*tremolo	*	*	*	*	*	*	*	*
8c\L	.	16b\LL	.	16gg\LL	8c\L	-e	.	.	.	.	.	.
.	.	16b\	.	16gg\	.	.	.	.	.	.	.	.
8B\	.	16b\	.	16gg\	8B\	.	.	.	.	.	.	.
.	.	16b\	.	16gg\	.	.	.	.	.	.	.	.
*	*	*	*	*	*	*ij	*	*	*	*	*	*
8A\J	.	16b\	.	16gg\	8A\J	[e]-	.	.	.	.	.	.
*	*	*	*	*	*	*Xij	*	*	*	*	*	*
.	.	16b\JJ	.	16gg\JJ	.	.	.	.	.	.	.	.
!	!	!	!	!LO:LB:g=original	!	!	!	!	!	!	!	!
=21	=21	=21	=21	=21	=21	=21	=21	=21	=21	=21	=21	=21
8G\L	.	16b\LL	.	16gg\LL	8G\L	-lei-	4.b\	-ri-	4.dd\	-ri-	2.G/_>	2.g\_<
.	.	16b\	.	16gg\	.	.	.	.	.	.	.	.
8A\	.	16b\	.	16gg\	8A\	.	.	.	.	.	.	.
.	.	16b\	.	16gg\	.	.	.	.	.	.	.	.
8F#\J	.	16b\	.	16gg\	8F#\J	.	.	.	.	.	.	.
.	.	16b\JJ	.	16gg\JJ	.	.	.	.	.	.	.	.
4G\	.	16b\LL	.	16gg\LL	4G\	-son	4b\	-e	4dd\	-e	.	.
.	.	16b\	.	16gg\	.	.	.	.	.	.	.	.
.	.	16b\	.	16gg\	.	.	.	.	.	.	.	.
.	.	16b\	.	16gg\	.	.	.	.	.	.	.	.
8r	.	16b\	.	16gg\	8r	.	8r	.	8r	.	.	.
.	.	16b\JJ	.	16gg\JJ	.	.	.	.	.	.	.	.
!	!	!	!	!	!LO:LB:g=original	!	!	!	!	!	!	!
=22	=22	=22	=22	=22	=22	=22	=22	=22	=22	=22	=22	=22
*	*	*	*	*	*	*	*	*ij	*	*ij	*	*
8B\L	.	16gg\LL	.	16bb\LL	8B\L	Ky-	2.b\	Ky-	2.dd\	Ky-	2.G/_>	2.g\_<
.	.	16gg\	.	16bb\	.	.	.	.	.	.	.	.
8c\	.	16gg\	.	16bb\	8c\J	.	.	.	.	.	.	.
.	.	16gg\	.	16bb\	.	.	.	.	.	.	.	.
8d\J	.	16gg\	.	16bb\	8d\	-ri-	.	.	.	.	.	.
.	.	16gg\JJ	.	16bb\JJ	.	.	.	.	.	.	.	.
8e\L	.	16gg\LL	.	16bb\LL	8e\L	-e	.	.	.	.	.	.
.	.	16gg\	.	16bb\	.	.	.	.	.	.	.	.
8d\	.	16gg\	.	16bb\	8d\	.	.	.	.	.	.	.
.	.	16gg\	.	16bb\	.	.	.	.	.	.	.	.
*	*	*	*	*	*	*ij	*	*	*	*	*	*
8c\J	.	16gg\	.	16bb\	8c\J	[e]-	.	.	.	.	.	.
*	*	*	*	*	*	*Xij	*	*	*	*	*	*
.	.	16gg\JJ	.	16bb\JJ	.	.	.	.	.	.	.	.
=23	=23	=23	=23	=23	=23	=23	=23	=23	=23	=23	=23	=23
!	!	!	!	!	!	!	!LO:SIC:s=4.b	!	!	!	!	!
!	!	!	!	!	!	!	!LO:N:vis=4	!	!	!	!	!
8B\L	.	16gg\LL	.	16bb\LL	8B\L	-lei-	4.b\	-ri-	4.dd\	-ri-	2.G/_>	2.g\_<
.	.	16gg\	.	16bb\	.	.	.	.	.	.	.	.
8c\	.	16gg\	.	16bb\	8c\	.	.	.	.	.	.	.
.	.	16gg\	.	16bb\	.	.	.	.	.	.	.	.
8A\J	.	16gg\	.	16bb\	8A\J	.	.	.	.	.	.	.
.	.	16gg\JJ	.	16bb\JJ	.	.	.	.	.	.	.	.
4B\	.	16gg\LL	.	16bb\LL	4B\	-son	4b\	-e	4dd\	-e	.	.
*	*	*	*	*	*	*	*	*Xij	*	*Xij	*	*
.	.	16gg\	.	16bb\	.	.	.	.	.	.	.	.
.	.	16gg\	.	16bb\	.	.	.	.	.	.	.	.
.	.	16gg\	.	16bb\	.	.	.	.	.	.	.	.
8r	.	16gg\	.	16bb\	8r	.	8r	.	8r	.	.	.
.	.	16gg\JJ	.	16bb\JJ	.	.	.	.	.	.	.	.
*	*	*Xtremolo	*	*	*	*	*	*	*	*	*	*
=24	=24	=24	=24	=24	=24	=24	=24	=24	=24	=24	=24	=24
[>4.G\	.	[<4.d/ 4.b	.	8dd/L	[>4.G\	Ky-	4b\	Ky-	4dd\	Ky-	2.G/_>	2.g\_<
.	.	.	.	8b/	.	.	.	.	.	.	.	.
.	.	.	.	8g/J	.	.	8b\	-ri-	8dd\	-ri-	.	.
8G\L]	.	8d/L] 8b	.	8gg\L	8G\L]	.	4b\	-e	4dd\	-e	.	.
8B\	.	8d/ 8b	.	16gg\L	8B\	.	.	.	.	.	.	.
.	.	.	.	16ff#\J	.	.	.	.	.	.	.	.
8G\J	.	8d/J 8b	.	8gg\J	8G\J	-ri-	8r	.	8r	.	.	.
!	!	!LO:LB:g=original	!	!	!	!	!	!	!LO:LB:g=original	!	!	!
=25	=25	=25	=25	=25	=25	=25	=25	=25	=25	=25	=25	=25
*	*	*	*	*	*	*	*	*ij	*	*ij	*	*
4.c\	.	[<4.e/ 4.cc	.	8ee\L	[>4.c\	-e	4cc\	Ky-	4ee\	Ky-	2.G/_>	2.g\_<
.	.	.	.	8cc\	.	.	.	.	.	.	.	.
.	.	.	.	8g\J	.	.	8cc\	-ri-	8ee\	-ri-	.	.
8c\L	.	8e/L] 8cc	.	8gg\L	8c\L]	.	4cc\	-e	4ee\	-e	.	.
*	*	*	*	*	*	*ij	*	*Xij	*	*Xij	*	*
8e\	.	8e/ 8cc	.	16gg\L	8e\	e	.	.	.	.	.	.
.	.	.	.	16ff#\J	.	.	.	.	.	.	.	.
8c\J	.	8e/J 8cc	.	8gg\J	8c\J	.	8r	.	8r	.	.	.
=26	=26	=26	=26	=26	=26	=26	=26	=26	=26	=26	=26	=26
[>4.G\	.	[<4.d/ 4.b	.	8dd/L	4.G\	e	4b\	Ky-	4dd\	Ky-	2.G/]	2.g\]
.	.	.	.	8b/	.	.	.	.	.	.	.	.
.	.	.	.	8g/J	.	.	8b\	-ri-	8dd\	-ri-	.	.
8G\L]	.	8d/L] 8b	.	8gg\L	8G\L	.	4b\	-e	4dd\	-e	.	.
8B\	.	8d/ 8b	.	16gg\L	8B\	.	.	.	.	.	.	.
.	.	.	.	16ff#\J	.	.	.	.	.	.	.	.
8G\J	.	8d/J 8b	.	8gg\J	8G\J	.	8r	.	8r	.	.	.
!	!	!	!	!	!	!	!LO:LB:g=original	!	!	!	!LO:LB:g=original	!
=27	=27	=27	=27	=27	=27	=27	=27	=27	=27	=27	=27	=27
*	*	*	*	*Xtremolo	*	*	*	*	*	*	*	*
8B\L	.	16cc\LL	.	16ee\LL	4c\	[e]-	8cc\L	e-	8ee\L	E-	2.r	2.r
*	*	*	*	*	*	*Xij	*	*	*	*	*	*
.	.	16cc\	.	16ee\	.	.	.	.	.	.	.	.
8c\	.	16cc\	.	16cc\	.	.	8cc\	.	8cc\	.	.	.
.	.	16cc\	.	16cc\	.	.	.	.	.	.	.	.
8B\J	.	16b\	.	16b\	8B\	.	8b\J	.	8b\J	.	.	.
.	.	16b\JJ	.	16b\JJ	.	.	.	.	.	.	.	.
!	!	!	!	!	!	!	!LO:TX:t=P:problem=mixed beam	!	!	!	!	!
8A\L	.	16a\LL	.	16a\LL	8A\L	-lei-	8a\L	-ley-	8a\L	-ley-	.	.
.	.	16a\	.	16a\	.	.	.	.	.	.	.	.
8e\	.	16ee\	.	16ee\	8e\	.	8ee\	.	8ee\	.	.	.
.	.	16ee\	.	16ee\	.	.	.	.	.	.	.	.
8G\J	.	16g\	.	16g\	8G\J	.	8g/J	.	8g\J	.	.	.
.	.	16g\JJ	.	16g\JJ	.	.	.	.	.	.	.	.
=28	=28	=28	=28	=28	=28	=28	=28	=28	=28	=28	=28	=28
8F#\L	.	8f#/L	.	8f#/L	4D/	-son	4f#/	-son.	4f#/	-son.	8d/L	8dd\L
8D\	.	8d/ 8a 8ff#	.	8d/ 8a 8ff#	.	.	.	.	.	.	8d/	8dd\
8D\J	.	8d/J 8a 8ff#	.	8d/J 8a 8ff#	8r	.	8r	.	8r	.	8d/J	8dd\J
4D\	.	4d/ 4a 4ff#	.	4d/ 4a 4ff#	4r	.	4r	.	4r	.	4d/	4dd\
8r	.	8r	.	8r	8r	.	8r	.	8r	.	8r	8r
!	!	!	!	!	!	!	!	!	!	!	!	!LO:SIC:znaczek wyglądający jak custos po kresce taktowej:v
!LO:LB:g=original	!	!	!	!LO:LB:g=original	!	!	!	!	!	!	!	!LO:LB:g=original
=29	=29	=29	=29	=29	=29	=29	=29	=29	=29	=29	=29	=29
*	*	*^	*	*	*	*	*	*	*	*	*	*
!	!	!	!	!	!	!LO:TX:a:t=8	!	!	!	!LO:TX:a:t=4	!	!	!
!	!	!	!	!	!	!LO:N:vis=00	!	!LO:N:vis=00	!	!LO:N:vis=00	!	!LO:N:vis=00	!LO:N:vis=00
4.D/	.	4.a/	4.f#\	.	16ff#\LL	0.r	.	0.r	.	0.r	.	0.r	0.r
.	.	.	.	.	16gg\J	.	.	.	.	.	.	.	.
.	.	.	.	.	8aa\	.	.	.	.	.	.	.	.
.	.	.	.	.	8aa\J	.	.	.	.	.	.	.	.
!	!	!	!LO:SIC:t=lub 4.f#	!	!	!	!	!	!	!	!	!	!
4.AA/	.	4.a/	4.e\	.	16aa\LL	.	.	.	.	.	.	.	.
.	.	.	.	.	16gg\	.	.	.	.	.	.	.	.
.	.	.	.	.	16ff#\	.	.	.	.	.	.	.	.
.	.	.	.	.	16gg\J	.	.	.	.	.	.	.	.
.	.	.	.	.	8ee\J	.	.	.	.	.	.	.	.
=30	=30	=30	=30	=30	=30	=30	=30	=30	=30	=30	=30	=30	=30
!	!	!	!LO:SIC:t=lub 4.f#	!	!	!	!	!	!	!	!	!	!
4.AA/	.	4.a/	4.e\	.	8dd\L	.	.	.	.	.	.	.	.
.	.	.	.	.	16cc#X\L	.	.	.	.	.	.	.	.
.	.	.	.	.	16ee\	.	.	.	.	.	.	.	.
.	.	.	.	.	16a\	.	.	.	.	.	.	.	.
.	.	.	.	.	16gg\JJ	.	.	.	.	.	.	.	.
8D/L	.	8a/L	8f#\L	.	8gg\	.	.	.	.	.	.	.	.
8D/	.	8a/	8f#\	.	4ff#\	.	.	.	.	.	.	.	.
8D/J	.	8a/J	8f#\J	.	.	.	.	.	.	.	.	.	.
=31	=31	=31	=31	=31	=31	=31	=31	=31	=31	=31	=31	=31	=31
4.D/	.	4.a/	4.f#\	.	16ff#\LL	.	.	.	.	.	.	.	.
.	.	.	.	.	16gg\J	.	.	.	.	.	.	.	.
.	.	.	.	.	8aa\	.	.	.	.	.	.	.	.
.	.	.	.	.	8aa\J	.	.	.	.	.	.	.	.
4.AA/	.	4.a/	4.e\	.	16aa\LL	.	.	.	.	.	.	.	.
.	.	.	.	.	16gg\	.	.	.	.	.	.	.	.
.	.	.	.	.	16ff#\	.	.	.	.	.	.	.	.
.	.	.	.	.	16gg\J	.	.	.	.	.	.	.	.
.	.	.	.	.	8ee\J	.	.	.	.	.	.	.	.
=32	=32	=32	=32	=32	=32	=32	=32	=32	=32	=32	=32	=32	=32
4.AA/	.	4.a/	4.e\	.	8dd\L	.	.	.	.	.	.	.	.
.	.	.	.	.	16cc#X\L	.	.	.	.	.	.	.	.
.	.	.	.	.	16ee\	.	.	.	.	.	.	.	.
.	.	.	.	.	16a\	.	.	.	.	.	.	.	.
.	.	.	.	.	16cc#\JJ	.	.	.	.	.	.	.	.
8D/L	.	8a/L	8f#\L	.	4dd\	.	.	.	.	.	.	.	.
8AA/	.	8a/	8f#\	.	.	.	.	.	.	.	.	.	.
8D/J	.	8a/J	8f#\J	.	8d/	.	.	.	.	.	.	.	.
*	*	*v	*v	*	*	*	*	*	*	*	*	*	*
!	!	!LO:LB:g=original	!	!	!	!	!	!	!	!	!	!
=33	=33	=33	=33	=33	=33	=33	=33	=33	=33	=33	=33	=33
!LO:TX:a:t=4	!	!	!	!	!	!	!	!	!LO:TX:i:a:t=Solo	!	!LO:N:vis=00	!LO:N:vis=00
!LO:N:vis=00	!	!	!	!	!	!	!	!	!	!	!	!
!	!	!	!	!	!LO:N:vis=00	!	!LO:N:vis=00	!	!	!	!	!
0.r	.	4.d/	.	16f#/LL	0.r	.	0.r	.	16ff#\LL	Chri-	0.r	0.r
.	.	.	.	16g/J	.	.	.	.	16gg\J	.	.	.
.	.	.	.	8a/	.	.	.	.	8aa\J	.	.	.
.	.	.	.	8a/J	.	.	.	.	8aa\	-ste	.	.
.	.	4.A/	.	16a/LL	.	.	.	.	16aa\LL	Chri-	.	.
.	.	.	.	16g/	.	.	.	.	16gg\	.	.	.
.	.	.	.	16f#/	.	.	.	.	16ff#\	.	.	.
.	.	.	.	16g/J	.	.	.	.	16gg\JJ	.	.	.
.	.	.	.	8e/J	.	.	.	.	8ee\	-ste	.	.
!	!	!	!	!	!	!	!	!	!LO:LB:g=original	!	!	!
=34	=34	=34	=34	=34	=34	=34	=34	=34	=34	=34	=34	=34
.	.	4.A/	.	8d/L	.	.	.	.	8dd\	E-	.	.
.	.	.	.	16c#X/L	.	.	.	.	16cc#X\LL	.	.	.
.	.	.	.	16e/	.	.	.	.	16ee\	.	.	.
.	.	.	.	16A/	.	.	.	.	16a\	.	.	.
.	.	.	.	16g/JJ	.	.	.	.	16gg\JJ	.	.	.
.	.	8d/L	.	8g/	.	.	.	.	8gg\	-ley-	.	.
.	.	8f#/	.	4f#/	.	.	.	.	4ff#\	-son	.	.
.	.	8a/J	.	.	.	.	.	.	.	.	.	.
!	!	!	!	!LO:LB:g=original	!	!	!	!	!	!	!	!
=35	=35	=35	=35	=35	=35	=35	=35	=35	=35	=35	=35	=35
.	.	4.d/	.	16f#/LL	.	.	.	.	16ff#\LL	Chri-	.	.
.	.	.	.	16g/J	.	.	.	.	16gg\JJ	.	.	.
.	.	.	.	8a/	.	.	.	.	8aa\	.	.	.
.	.	.	.	8a/J	.	.	.	.	8aa\	-ste	.	.
.	.	4.A/	.	16a/LL	.	.	.	.	16aa\LL	Chri-	.	.
.	.	.	.	16g/	.	.	.	.	16gg\	.	.	.
.	.	.	.	16f#/	.	.	.	.	16ff#\	.	.	.
.	.	.	.	16g/J	.	.	.	.	16gg\JJ	.	.	.
.	.	.	.	8e/J	.	.	.	.	8ee\	-ste	.	.
=36	=36	=36	=36	=36	=36	=36	=36	=36	=36	=36	=36	=36
.	.	4.A/	.	8d/L	.	.	.	.	8dd\	e-	.	.
.	.	.	.	16c#X/L	.	.	.	.	16cc#X\LL	.	.	.
.	.	.	.	16e/	.	.	.	.	16ee\	.	.	.
.	.	.	.	16A/	.	.	.	.	16a\	.	.	.
.	.	.	.	16c#/JJ	.	.	.	.	16cc#\JJ	.	.	.
.	.	8d/L	.	4d/	.	.	.	.	4dd\	-ley-	.	.
.	.	8A/	.	.	.	.	.	.	.	.	.	.
.	.	8d/J	.	8d/	.	.	.	.	8d/	-son	.	.
!	!	!	!	!	!LO:LB:g=original	!	!	!	!	!	!	!
=37	=37	=37	=37	=37	=37	=37	=37	=37	=37	=37	=37	=37
!	!	!	!	!	!	!	!	!	!LO:TX:i:a:t=Tutti	!	!	!
4.GG/	.	4.b\	.	4.dd\	4.GG/	Ky-	4.b\	Ky-	4.dd\	Ky-	[>2.G/	[<2.g\
4.GG/	.	4.b\	.	4.dd\	4.GG/	-ri-	4.b\	-ri-	4.dd\	-ri-	.	.
=38	=38	=38	=38	=38	=38	=38	=38	=38	=38	=38	=38	=38
4.GG/	.	8g\L	.	8b\L	[>2.GG/	-e-	8g\L	-e	8b\L	-e	2.G/_>	2.g\_<
.	.	8a\	.	8cc\	.	.	8a\	.	8cc\	.	.	.
.	.	8b\J	.	8dd\J	.	.	8b\J	.	8dd\J	.	.	.
!	!	!	!	!	!	!	!	!	!LO:LB:g=original	!	!	!
*	*	*	*	*	*	*	*	*ij	*	*ij	*	*
4.GG/	.	4.b\	.	4.dd\	.	.	4.b\	e	4.dd\	e	.	.
=39	=39	=39	=39	=39	=39	=39	=39	=39	=39	=39	=39	=39
!	!	!	!	!	!	!	!	!	!LO:TX:b:t=P:problem=symbol graficzny powtórzenia tekstu w źródle	!	!	!
4.GG/	.	8g\L	.	8b\L	2.GG/_>	.	8g\L	e	8b\L	e	2.G/_>	2.g\_<
.	.	8a\	.	8cc\	.	.	8a\	.	8cc\	.	.	.
.	.	8b\J	.	8dd\J	.	.	8b\J	.	8dd\J	.	.	.
4.GG/	.	4.b\	.	4.dd\	.	.	4.b\	.	4.dd\	.	.	.
=40	=40	=40	=40	=40	=40	=40	=40	=40	=40	=40	=40	=40
!	!	!	!	!	!	!	!	!	!LO:TX:b:t=P:problem=symbol graficzny powtórzenia tekstu w źródle	!	!	!
4.GG/	.	8g\L	.	8b\L	[>2.GG/]	.	8g\L	[e]-	8b\L	[e]-	2.G/_>	2.g\_<
*	*	*	*	*	*	*	*	*Xij	*	*Xij	*	*
.	.	8a\	.	8cc\	.	.	8a\	.	8cc\	.	.	.
.	.	8b\J	.	8dd\J	.	.	8b\J	.	8dd\J	.	.	.
4.GG/	.	8cc\L	.	8ee\L	.	.	8cc\L	.	8ee\L	.	.	.
.	.	8b\	.	8dd\	.	.	8b\	.	8dd\	.	.	.
.	.	8a\J	.	8cc#X\J	.	.	8a\J	.	8cc#X\J	.	.	.
=41	=41	=41	=41	=41	=41	=41	=41	=41	=41	=41	=41	=41
4.GG/	.	8b\L	.	8dd\L	4.GG/]	-lei-	8b\L	-ley-	8dd\L	-ley-	2.G/]	2.g\_<
.	.	8a\	.	8cc#X\	.	.	8a\	.	8cc#X\	.	.	.
.	.	8b\J	.	8dd\J	.	.	8b\J	.	8dd\J	.	.	.
!	!	!	!	!	!	!	!LO:LB:g=original	!	!	!	!	!
4.GG/	.	4.b\	.	4.dd\	4.GG/	-son	4.b\	-son	4.dd\	-son	.	.
!	!	!	!	!LO:LB:g=original	!	!	!	!	!	!	!	!
=42	=42	=42	=42	=42	=42	=42	=42	=42	=42	=42	=42	=42
4.GG/	.	8g\L	.	8b\L	2.GG/	e-	8g\L	e-	8b\L	E-	2.G/	2.g\_<
.	.	8a\	.	8ccn\	.	.	8a\	.	8cc\	.	.	.
.	.	8b\J	.	8dd\J	.	.	8b\J	.	8dd\J	.	.	.
4.GG/	.	8cc\L	.	8ee\L	.	.	8cc\L	.	8ee\L	.	.	.
.	.	8b\	.	8dd\	.	.	8b\	.	8dd\	.	.	.
.	.	8a\J	.	8cc#X\J	.	.	8a\J	.	8cc#X\J	.	.	.
!	!	!LO:LB:g=original	!	!	!	!	!	!	!	!	!	!
=43	=43	=43	=43	=43	=43	=43	=43-	=43	=43	=43	=43	=43
!	!	!	!	!	!	!	!LO:TX:t=P:problem=brak kreski taktowej	!	!	!	!	!
4.GG/	.	8b/L	.	8dd\L	4.GG/	-ley-	8b\L	-ley-	8dd\L	-ley-	2.G/	2.g\]
.	.	8a/	.	8cc#X\	.	.	8a\	.	8cc#X\	.	.	.
.	.	8b/J	.	8dd\J	.	.	8b\J	.	8dd\J	.	.	.
4.GG/	.	4.b/	.	4.dd\	4.GG/	-son	4.b\	-son	4.dd\	-son	.	.
!LO:LB:g=original	!	!	!	!	!	!	!	!	!	!	!	!
=44	=44	=44	=44	=44	=44	=44	=44	=44	=44	=44	=44	=44
*	*	*^	*	*	*	*	*	*	*	*	*	*
8GG/L	.	8d/L 8b	4rcyy	.	8dd\L	4GG/	Ky-	4b\	Ky-	8dd\L	Ky	4.g\	4.b\
8GG/	.	8d/ 8b	.	.	8b\	.	.	.	.	8b\	.	.	.
8GG/J	.	8d/J 8b	8rcyy	.	8g\J	8GG/	-ri-	8b\	-ri-	8g\J	rie	.	.
!	!	!	!	!	!	!	!	!	!	!LO:LB:g=original	!	!	!
8D/L	.	8a/L	8f#\L	.	8ccn\L	4.D\	-e	4a\	-e	8cc\L	E-	4.d/	4.a\
8D/	.	8a/	8f#\	.	8a\	.	.	.	.	8a\	.	.	.
8D/J	.	8a/J	8f#\J	.	8f#\J	.	.	8f#/	e-	8f#\J	.	.	.
*	*	*v	*v	*	*	*	*	*	*	*	*	*	*
=45	=45	=45	=45	=45	=45	=45	=45	=45	=45	=45	=45	=45
4.GG/	.	4.B/ 4.g	.	4.g/	4.GG/	ley-	4.g/	-ley-	4.g/	-ley-	2.B/	2.g\
4.GG/	.	4.B/ 4.g	.	4.g/	4.GG/	-son	4.g/	-son	4.g/	-son	.	.
=46	=46	=46	=46	=46	=46	=46	=46	=46	=46	=46	=46	=46
*	*	*^	*	*	*	*	*	*	*	*	*	*
*	*	*	*	*	*	*	*	*	*ij	*	*ij	*	*
8GG/L	.	8d/L 8b	4rcyy	.	8dd/L	4GG/	Ky-	4b\	Ky-	8dd\L	Ky-	4.g\	4.b\
8GG/	.	8d/ 8b	.	.	8b/	.	.	.	.	8b\	.	.	.
!	!	!	!	!	!	!LO:SIC:s=8GG	!	!	!	!	!	!	!
!	!	!	!	!	!	!LO:N:vis=8.	!	!	!	!	!	!	!
8GG/J	.	8d/J 8b	8rcyy	.	8g/J	8GG/	-ri-	8b\	-ri-	8g\J	-rie	.	.
8D/L	.	8a/L	8f#\L	.	8cc/L	8ryy	.	4a\	-e	8cc\L	E-	4.d/	4.a\
8D/	.	8a/	8f#\	.	8a/	4D\	-e	.	.	8a\	.	.	.
8D/J	.	8a/J	8f#\J	.	8f#/J	.	.	8f#/	e-	8f#\J	.	.	.
*	*	*v	*v	*	*	*	*	*	*	*	*	*	*
=47	=47	=47	=47	=47	=47	=47	=47	=47	=47	=47	=47	=47
4.GG/	.	4.B/ 4.g	.	4.g/	4.GG/	ley-	4.g/	-ley-	4.g/	-ley-	2.B/	2.g\
4.GG/	.	4.B/ 4.g	.	4.g/	4.GG/	-son	4.g/	-son	4.g/	-son	.	.
*	*	*	*	*	*	*	*	*Xij	*	*Xij	*	*
!	!	!	!	!	!	!	!LO:LB:g=original	!	!	!	!	!
=48	=48	=48	=48	=48	=48	=48	=48	=48	=48	=48	=48	=48
*	*	*tremolo	*	*	*	*	*	*	*	*	*	*
!	!	!LO:TX:a:t=P:problem=początek znaku repetycji	!	!	!	!	!	!	!LO:TX:a:t=P:problem=początek znaku repetycji	!	!LO:N:vis=0	!LO:N:vis=0
8G\L	.	16b\LL	.	16dd\LL	8G\L	Ky-	4b\	Ky-	4dd\	Ky-	1.r	1.r
.	.	16b\	.	16dd\JJ	.	.	.	.	.	.	.	.
8A\	.	16b\	.	16dd\LL	8A\	.	.	.	.	.	.	.
.	.	16b\	.	16dd\	.	.	.	.	.	.	.	.
8B\J	.	16b\	.	16dd\	8B\J	-ri-	8b\	-ri-	8dd\	-ri-	.	.
.	.	16b\JJ	.	16dd\JJ	.	.	.	.	.	.	.	.
!	!	!	!	!LO:LB:g=original	!LO:LB:g=original	!	!	!	!	!	!	!
8c\L	.	16cc\LL	.	16ee\LL	8c\L	-e	4cc\	-e	4ee\	-e	.	.
.	.	16cc\	.	16ee\	.	.	.	.	.	.	.	.
*	*	*	*	*	*	*ij	*	*	*	*	*	*
8d\	.	16cc\	.	16ee\	8d\	e	.	.	.	.	.	.
.	.	16cc\	.	16ee\	.	.	.	.	.	.	.	.
8e\J	.	16cc\	.	16ee\	8e\J	.	8r	.	8r	.	.	.
.	.	16cc\JJ	.	16ee\JJ	.	.	.	.	.	.	.	.
=49	=49	=49	=49	=49	=49	=49	=49	=49	=49	=49	=49	=49
*	*	*	*	*tremolo	*	*	*	*ij	*	*ij	*	*
8F#\L	.	16a\LL	.	16cc\LL	8F#\L	e	4a\	Ky-	4cc\	Ky-	.	.
.	.	16a\	.	16cc\	.	.	.	.	.	.	.	.
8G\	.	16a\	.	16cc\	8G\	.	.	.	.	.	.	.
.	.	16a\	.	16cc\	.	.	.	.	.	.	.	.
8A\J	.	16a\	.	16cc\	8A\J	.	8a\	-ri-	8cc\	-ri-	.	.
.	.	16a\JJ	.	16cc\JJ	.	.	.	.	.	.	.	.
8B\L	.	16b\LL	.	16dd\LL	8B\L	e	4b\	-e	4dd\	-e	.	.
*	*	*	*	*	*	*	*	*Xij	*	*Xij	*	*
.	.	16b\	.	16dd\	.	.	.	.	.	.	.	.
8c\	.	16b\	.	16dd\	8c\	.	.	.	.	.	.	.
.	.	16b\	.	16dd\	.	.	.	.	.	.	.	.
8d\J	.	16b\	.	16dd\	8d\J	.	8r	.	8r	.	.	.
.	.	16b\JJ	.	16dd\JJ	.	.	.	.	.	.	.	.
!	!	!	!	!	!	!	!	!	!	!	!LO:LB:g=original	!
=50	=50	=50	=50	=50	=50	=50	=50	=50	=50	=50	=50	=50
8E\L	.	16g/LL	.	16b\LL	8E\L	e	4g\	Ky-	4b\	Ky-	4.g\	4.b\
.	.	16g/	.	16b\	.	.	.	.	.	.	.	.
8F#\	.	16g/	.	16b\	8F#\	.	.	.	.	.	.	.
.	.	16g/	.	16b\	.	.	.	.	.	.	.	.
8G\J	.	16g/	.	16b\	8G\J	.	8g\	-ri-	8b\	-ri-	.	.
.	.	16g/JJ	.	16b\JJ	.	.	.	.	.	.	.	.
!	!	!	!	!LO:TX:a:t=P:problem=skreślony takt po tym takcie	!	!	!	!	!	!	!	!
8A\L	.	16a/LL	.	16cc\LL	8A\L	[e]-	4a\	-e	4cc\	-e	4.a\	4.cc\
*	*	*	*	*	*	*Xij	*	*	*	*	*	*
.	.	16a/	.	16cc\	.	.	.	.	.	.	.	.
8B\	.	16a/	.	16cc\	8B\	.	.	.	.	.	.	.
.	.	16a/	.	16cc\	.	.	.	.	.	.	.	.
8c\J	.	16a/	.	16cc\	8c\J	.	8r	.	8r	.	.	.
.	.	16a/JJ	.	16cc\JJ	.	.	.	.	.	.	.	.
!	!	!	!	!	!	!	!	!	!LO:LB:g=original	!	!	!
=51	=51	=51	=51	=51	=51	=51	=51	=51	=51	=51	=51	=51
*	*	*	*	*	*	*	*	*ij	*	*ij	*	*
8D\L	.	16f#/LL	.	16a/LL	8D\L	-ley-	4f#/	Ky-	4a\	Ky-	4.d/	4.a\
.	.	16f#/	.	16a/	.	.	.	.	.	.	.	.
8E\	.	16f#/	.	16a/	8E\	.	.	.	.	.	.	.
.	.	16f#/	.	16a/	.	.	.	.	.	.	.	.
8F#\J	.	16f#/	.	16a/	8F#\J	.	8f#/	-ri-	8a\	-ri-	.	.
.	.	16f#/JJ	.	16a/JJ	.	.	.	.	.	.	.	.
8G\L	.	16g/LL	.	16b/LL	8G\L	-son	4g/	-e	4b\	-e	4.g\	4.b\
*	*	*	*	*	*	*	*	*Xij	*	*Xij	*	*
.	.	16g/	.	16b/	.	.	.	.	.	.	.	.
8A\	.	16g/	.	16b/	8A\	.	.	.	.	.	.	.
.	.	16g/	.	16b/	.	.	.	.	.	.	.	.
8B\J	.	16g/	.	16b/	8B\J	.	8r	.	8r	.	.	.
.	.	16g/JJ	.	16b/JJ	.	.	.	.	.	.	.	.
!	!	!LO:TX:a:t=P:problem=koniec znaku repetycji	!	!	!	!	!	!	!LO:TX:a:t=P:problem=koniec znaku repetycji	!	!	!LO:LB:g=original
=52	=52	=52	=52	=52	=52	=52	=52	=52	=52	=52	=52	=52
!	!	!	!	!	!	!	!	!	!LO:TX:t=P:problem=t. 52-55 zapisane jako repetycja	!	!LO:N:vis=0	!LO:N:vis=0
8G\L	.	16b\LL	.	16dd\LL	8G\L	Ky-	4b\	Ky-	4dd\	Ky-	1.r	1.r
.	.	16b\	.	16dd\	.	.	.	.	.	.	.	.
8A\	.	16b\	.	16dd\	8A\	.	.	.	.	.	.	.
.	.	16b\	.	16dd\	.	.	.	.	.	.	.	.
8B\J	.	16b\	.	16dd\	8B\J	-ri-	8b\	-ri-	8dd\	-ri-	.	.
.	.	16b\JJ	.	16dd\JJ	.	.	.	.	.	.	.	.
!LO:LB:g=original	!	!	!	!	!	!	!	!	!	!	!	!
8c\L	.	16cc\LL	.	16ee\LL	8c\L	-e	4cc\	-e	4ee\	-e	.	.
.	.	16cc\	.	16ee\	.	.	.	.	.	.	.	.
*	*	*	*	*	*	*ij	*	*	*	*	*	*
8d\	.	16cc\	.	16ee\	8d\	e	.	.	.	.	.	.
.	.	16cc\	.	16ee\	.	.	.	.	.	.	.	.
8e\J	.	16cc\	.	16ee\	8e\J	.	8r	.	8r	.	.	.
.	.	16cc\JJ	.	16ee\JJ	.	.	.	.	.	.	.	.
=53	=53	=53	=53	=53	=53	=53	=53	=53	=53	=53	=53	=53
*	*	*	*	*	*	*	*	*ij	*	*ij	*	*
8F#\L	.	16a\LL	.	16cc\LL	8F#\L	e	4a\	Ky-	4cc\	Ky-	.	.
.	.	16a\	.	16cc\	.	.	.	.	.	.	.	.
8G\	.	16a\	.	16cc\	8G\	.	.	.	.	.	.	.
.	.	16a\	.	16cc\	.	.	.	.	.	.	.	.
8A\J	.	16a\	.	16cc\	8A\J	.	8a\	-ri-	8cc\	-ri-	.	.
.	.	16a\JJ	.	16cc\JJ	.	.	.	.	.	.	.	.
8B\L	.	16b\LL	.	16dd\LL	8B\L	.	4b\	-e	4dd\	-e	.	.
*	*	*	*	*	*	*	*	*Xij	*	*Xij	*	*
.	.	16b\	.	16dd\	.	.	.	.	.	.	.	.
8c\	.	16b\	.	16dd\	8c\	.	.	.	.	.	.	.
.	.	16b\	.	16dd\	.	.	.	.	.	.	.	.
8d\J	.	16b\	.	16dd\	8d\J	.	8r	.	8r	.	.	.
.	.	16b\JJ	.	16dd\JJ	.	.	.	.	.	.	.	.
=54	=54	=54	=54	=54	=54	=54	=54	=54	=54	=54	=54	=54
8E\L	.	16g/LL	.	16b\LL	8E\L	[e]-	4g\	Ky-	4b\	Ky-	4.g\	4.b\
*	*	*	*	*	*	*Xij	*	*	*	*	*	*
.	.	16g/	.	16b\	.	.	.	.	.	.	.	.
8F#\	.	16g/	.	16b\	8F#\	.	.	.	.	.	.	.
.	.	16g/	.	16b\	.	.	.	.	.	.	.	.
8G\J	.	16g/	.	16b\	8G\J	.	8g\	-ri-	8b\	-ri-	.	.
.	.	16g/JJ	.	16b\JJ	.	.	.	.	.	.	.	.
8A\L	.	16a/LL	.	16cc\LL	8A\L	.	4a\	-e	4cc\	-e	4.a\	4.cc\
.	.	16a/	.	16cc\	.	.	.	.	.	.	.	.
8B\	.	16a/	.	16cc\	8B\	.	.	.	.	.	.	.
.	.	16a/	.	16cc\	.	.	.	.	.	.	.	.
8c\J	.	16a/	.	16cc\	8c\J	.	8r	.	8r	.	.	.
.	.	16a/JJ	.	16cc\JJ	.	.	.	.	.	.	.	.
!	!	!	!	!LO:LB:g=original	!	!	!LO:LB:g=original	!	!	!	!	!
=55	=55	=55	=55	=55	=55	=55	=55	=55	=55	=55	=55	=55
*	*	*	*	*	*	*	*	*ij	*	*ij	*	*
8D\L	.	16f#/LL	.	16a/LL	8D\L	-ley-	4f#/	Ky-	4a\	Ky-	4.d/	4.a\
.	.	16f#/	.	16a/	.	.	.	.	.	.	.	.
8E\	.	16f#/	.	16a/	8E\	.	.	.	.	.	.	.
.	.	16f#/	.	16a/	.	.	.	.	.	.	.	.
8F#\J	.	16f#/	.	16a/	8F#\J	.	8f#/	-ri-	8a\	-ri-	.	.
.	.	16f#/JJ	.	16a/JJ	.	.	.	.	.	.	.	.
8G\L	.	16g/LL	.	16b/LL	8G\L	-son	4g/	-e	4b\	-e	4.g\	4.b\
*	*	*	*	*	*	*	*	*Xij	*	*Xij	*	*
.	.	16g/	.	16b/	.	.	.	.	.	.	.	.
8A\	.	16g/	.	16b/	8A\	.	.	.	.	.	.	.
.	.	16g/	.	16b/	.	.	.	.	.	.	.	.
8B\J	.	16g/	.	16b/	8B\J	.	8r	.	8r	.	.	.
.	.	16g/JJ	.	16b/JJ	.	.	.	.	.	.	.	.
!	!	!LO:LB:g=original	!	!	!	!	!	!	!	!	!	!
=56	=56	=56	=56	=56	=56	=56	=56	=56	=56	=56	=56	=56
*tremolo	*	*Xtremolo	*	*	*	*	*	*	*	*	*	*
8G\L	.	8b/L	.	8dd\L	4G\	Ky-	4b\	Ky-	8dd\L	Ky-	4g\	4b\
8G\	.	8b/	.	8b\	.	.	.	.	8b\J	.	.	.
8G\J	.	8g/J	.	8g\J	8G\	-ri-	8g\	-ri-	8g\	-ri-	8r	8r
!	!	!	!	!	!LO:LB:g=original	!	!	!	!	!	!	!
8c\L	.	8ee\L	.	8gg\L	4.c\	-e	8ee\L	-e	8gg\L	-e	4r	4r
8c\	.	8cc\	.	8ee\	.	.	8cc\	.	8ee\	.	.	.
*	*	*	*	*	*	*	*	*ij	*	*ij	*	*
8c\J	.	8a\J	.	8cc\J	.	.	8a\J	[e]-	8cc\J	[e]-	8r	8r
*	*	*	*	*	*	*	*	*Xij	*	*Xij	*	*
=57	=57	=57	=57	=57	=57	=57	=57	=57	=57	=57	=57	=57
*	*	*tremolo	*	*	*	*	*	*	*	*	*	*
8d\L	.	16g/LL	.	16b/LL	4.d\	ley-	4.g/	-ley-	4.b\	-ley-	4.g\	4.b\
.	.	16g/	.	16b/	.	.	.	.	.	.	.	.
8d\	.	16g/	.	16b/	.	.	.	.	.	.	.	.
.	.	16g/	.	16b/	.	.	.	.	.	.	.	.
8d\J	.	16g/	.	16b/	.	.	.	.	.	.	.	.
.	.	16g/JJ	.	16b/JJ	.	.	.	.	.	.	.	.
8D/L	.	16f#/LL	.	16a/LL	4.D/	.	4.f#t>/	.	4.aT>\	.	4.dT>/	4.aT>\
.	.	16f#/	.	16a/	.	.	.	.	.	.	.	.
8D/	.	16f#/	.	16a/	.	.	.	.	.	.	.	.
.	.	16f#/	.	16a/	.	.	.	.	.	.	.	.
8D/J	.	16f#/	.	16a/	.	.	.	.	.	.	.	.
.	.	16f#/JJ	.	16a/JJ	.	.	.	.	.	.	.	.
=58	=58	=58	=58	=58	=58	=58	=58	=58	=58	=58	=58	=58
*	*	*Xtremolo	*	*	*	*	*	*	*	*	*	*
8G\L	.	8b/L	.	8dd\L	8G\	-son	8b\	-son	8dd\	-son	4g\	4b\
8G\	.	8b/	.	8b\	8G\	Ky-	8g\	Ky-	8b\	Ky-	.	.
8G\J	.	8g/J	.	8g\J	8G\	-ri-	8g\	-ri-	8g\	-ri-	8r	8r
8c\L	.	8ee\L	.	8gg\L	4.c\	-e	8ee\L	-e	8gg\L	-e	4r	4r
8c\	.	8cc\	.	8ee\	.	.	8cc\	.	8ee\	.	.	.
*	*	*	*	*	*	*	*	*ij	*	*ij	*	*
8c\J	.	8a\J	.	8cc\J	.	.	8a\J	[e]-	8cc\J	[e]-	8r	8r
*	*	*	*	*	*	*	*	*Xij	*	*Xij	*	*
=59	=59	=59	=59	=59	=59	=59	=59	=59	=59	=59	=59	=59
*	*	*tremolo	*	*	*	*	*	*	*	*	*	*
8d\L	.	16g/LL	.	16b/LL	4.d\	ley-	4.g/	-ley-	4.b\	-ley-	4.g\	4.b\
.	.	16g/	.	16b/	.	.	.	.	.	.	.	.
8d\	.	16g/	.	16b/	.	.	.	.	.	.	.	.
.	.	16g/	.	16b/	.	.	.	.	.	.	.	.
8d\J	.	16g/	.	16b/	.	.	.	.	.	.	.	.
.	.	16g/JJ	.	16b/JJ	.	.	.	.	.	.	.	.
8D/L	.	16f#/LL	.	16a/LL	4.D/	.	4.f#t>/	.	4.aT>\	.	4.dT>/	4.aT>\
.	.	16f#/	.	16a/	.	.	.	.	.	.	.	.
8D/	.	16f#/	.	16a/	.	.	.	.	.	.	.	.
.	.	16f#/	.	16a/	.	.	.	.	.	.	.	.
8D/J	.	16f#/	.	16a/	.	.	.	.	.	.	.	.
.	.	16f#/JJ	.	16a/JJ	.	.	.	.	.	.	.	.
*	*	*	*	*Xtremolo	*	*	*	*	*	*	*	*
*	*	*Xtremolo	*	*	*	*	*	*	*	*	*	*
*Xtremolo	*	*	*	*	*	*	*	*	*	*	*	*
=60	=60	=60	=60	=60	=60	=60	=60	=60	=60	=60	=60	=60
8G\L	.	8B/L 8g	.	8g/L	4G\	-son	4g/	-son	4g/	-son	8g\L	8b\L
8G\	.	8d/ 8b	.	8d/ 8b 8gg	.	.	.	.	.	.	8g\	8b\
!	!	!	!	!	!	!	!	!	!	!	!LO:TX:a:t=P:problem=przekreślona kreska taktowa po tej nucie	!
8D\J	.	8d/J 8a	.	8d/J 8a 8ff#	8r	.	8r	.	8r	.	8d\J	8a\J
8G\L	.	8d/L 8b	.	8d/L 8b 8gg	4r	.	4r	.	4r	.	8g\L	8b\L
8G\	.	8d/ 8b	.	8d/ 8b 8gg	.	.	.	.	.	.	8g\	8b\
8D\J	.	8d/J 8a	.	8d/J 8a 8ff#	8r	.	8r	.	8r	.	8d\J	8a\J
!	!	!	!	!LO:LB:g=original	!	!	!	!	!	!LO:LB:g=original	!	!
=61	=61	=61	=61	=61	=61	=61	=61	=61	=61	=61	=61	=61
!	!	!	!	!	!	!	!LO:TX:a:t=1.	!	!	!	!	!
8G\L	.	8d/L 8b	.	8d/L 8b 8gg	2.r	.	2.r	.	2.r	.	8g\L	8b\L
8G\	.	8d/ 8b	.	8d/ 8b 8gg	.	.	.	.	.	.	8g\	8b\
8G\J	.	8d/J 8b	.	8d/J 8b 8gg	.	.	.	.	.	.	8g\J	8b\J
4G\	.	4d/ 4b	.	4d/ 4b 4gg	.	.	.	.	.	.	4g\	4b\
8r	.	8r	.	8r	.	.	.	.	.	.	8r	8r
==	==	==	==	==	==	==	==	==	==	==	==	==
*-	*-	*-	*-	*-	*-	*-	*-	*-	*-	*-	*-	*-
!!!system-decoration: [(s1,s2)][(s3,s4,s5)][(s6,s7)][(s8)]
!!!RDF**kern: > = above
!!!RDF**kern: < = below
!!!ENC: Marcin Jachim
!!!END: 2020-08-19
!!!EED: Mateusz Mrugas
!!!EST: 2020-11-19
